src/assets/svg/angular-icon.svg

<svg viewBox="0 0 33 38" fill="none">
    <path
        d="M16.5001 1.26667L16.8023 0.0487363C16.6047 -0.0162454 16.3954 -0.0162454 16.1979 0.0487363L16.5001 1.26667ZM1.10006 6.33333L0.797865 5.11541C0.281828 5.28519 -0.0524801 5.85899 0.00678688 6.47322L1.10006 6.33333ZM3.30006 29.1333L2.20679 29.2732C2.248 29.7003 2.47438 30.0742 2.80812 30.2662L3.30006 29.1333ZM16.5001 36.7333L16.0081 37.8662C16.3178 38.0446 16.6823 38.0446 16.992 37.8662L16.5001 36.7333ZM29.7001 29.1333L30.192 30.2662C30.5257 30.0742 30.7521 29.7003 30.7932 29.2732L29.7001 29.1333ZM31.9001 6.33333L32.9932 6.47322C33.0526 5.85899 32.7182 5.28519 32.2023 5.11541L31.9001 6.33333ZM16.5001 7.6L17.5078 7.09229L16.5001 4.43979L15.4923 7.09229L16.5001 7.6ZM16.1979 0.0487363L0.797865 5.11541L1.40225 7.55126L16.8023 2.4846L16.1979 0.0487363ZM0.00678688 6.47322L2.20679 29.2732L4.39333 28.9935L2.19333 6.19344L0.00678688 6.47322ZM2.80812 30.2662L16.0081 37.8662L16.992 35.6004L3.792 28.0004L2.80812 30.2662ZM16.992 37.8662L30.192 30.2662L29.2081 28.0004L16.0081 35.6004L16.992 37.8662ZM30.7932 29.2732L32.9932 6.47322L30.8069 6.19344L28.6069 28.9935L30.7932 29.2732ZM32.2023 5.11541L16.8023 0.0487363L16.1979 2.4846L31.5978 7.55126L32.2023 5.11541ZM9.80783 28.3743L17.5078 8.1077L15.4923 7.09229L7.79228 27.359L9.80783 28.3743ZM15.4923 8.1077L23.1922 28.3743L25.2079 27.359L17.5078 7.09229L15.4923 8.1077ZM11.0001 22.8H22.0001V20.2667H11.0001V22.8Z"
        fill="#E8E8E8" />
</svg>

<svg viewBox="0 0 33 38" fill="none"><path d="m16.5 1.267.302-1.218a.961.961 0 0 0-.604 0l.302 1.218zM1.1 6.333.798 5.115c-.516.17-.85.744-.791 1.358l1.093-.14zm2.2 22.8-1.093.14c.041.427.267.801.601.993l.492-1.133zm13.2 7.6-.492 1.133c.31.179.674.179.984 0l-.492-1.133zm13.2-7.6.492 1.133c.334-.192.56-.566.601-.993l-1.093-.14zm2.2-22.8 1.093.14c.06-.614-.275-1.188-.79-1.358L31.9 6.333zM16.5 7.6l1.008-.508L16.5 4.44l-1.008 2.652L16.5 7.6zM16.198.049.798 5.115l.604 2.436 15.4-5.066-.604-2.436zM.007 6.473l2.2 22.8 2.186-.28-2.2-22.8-2.186.28zm2.801 23.793 13.2 7.6.984-2.266-13.2-7.6-.984 2.266zm14.184 7.6 13.2-7.6L29.208 28l-13.2 7.6.984 2.266zm13.801-8.593 2.2-22.8-2.186-.28-2.2 22.8 2.186.28zm1.41-24.158L16.802.05l-.605 2.436 15.4 5.066.604-2.436zM9.807 28.375l7.7-20.267-2.016-1.016-7.7 20.267 2.016 1.015zm5.684-20.267 7.7 20.266 2.016-1.015-7.7-20.267-2.016 1.016zM11 22.8h11v-2.533H11V22.8z" fill="#E8E8E8"/></svg>
